src/helpers/heroicons/outline/chart-bar.svg

<svg width="24" height="24" viewBox="0 0 24 24" fill="none" xmlns="http://www.w3.org/2000/svg">
<path d="M3 13.125C3 12.5037 3.50368 12 4.125 12H6.375C6.99632 12 7.5 12.5037 7.5 13.125V19.875C7.5 20.4963 6.99632 21 6.375 21H4.125C3.50368 21 3 20.4963 3 19.875V13.125Z"  stroke-width="1.5" stroke-linecap="round" stroke-linejoin="round"/>
<path d="M9.75 8.625C9.75 8.00368 10.2537 7.5 10.875 7.5H13.125C13.7463 7.5 14.25 8.00368 14.25 8.625V19.875C14.25 20.4963 13.7463 21 13.125 21H10.875C10.2537 21 9.75 20.4963 9.75 19.875V8.625Z"  stroke-width="1.5" stroke-linecap="round" stroke-linejoin="round"/>
<path d="M16.5 4.125C16.5 3.50368 17.0037 3 17.625 3H19.875C20.4963 3 21 3.50368 21 4.125V19.875C21 20.4963 20.4963 21 19.875 21H17.625C17.0037 21 16.5 20.4963 16.5 19.875V4.125Z"  stroke-width="1.5" stroke-linecap="round" stroke-linejoin="round"/>
</svg>

<svg xmlns="http://www.w3.org/2000/svg" fill="none" viewBox="0 0 24 24" stroke-width="1.5" stroke="currentColor" aria-hidden="true" data-slot="icon">
  <path stroke-linecap="round" stroke-linejoin="round" d="M3 13.125C3 12.504 3.504 12 4.125 12h2.25c.621 0 1.125.504 1.125 1.125v6.75C7.5 20.496 6.996 21 6.375 21h-2.25A1.125 1.125 0 0 1 3 19.875v-6.75ZM9.75 8.625c0-.621.504-1.125 1.125-1.125h2.25c.621 0 1.125.504 1.125 1.125v11.25c0 .621-.504 1.125-1.125 1.125h-2.25a1.125 1.125 0 0 1-1.125-1.125V8.625ZM16.5 4.125c0-.621.504-1.125 1.125-1.125h2.25C20.496 3 21 3.504 21 4.125v15.75c0 .621-.504 1.125-1.125 1.125h-2.25a1.125 1.125 0 0 1-1.125-1.125V4.125Z"/>
</svg>
